!!!!SEGMENT: pl-kk--kk-i-2--052-001_pekiel-bartlomiej--missa-secunda-kyrie.krn
!!!cenid: 16xx:1735
!!!COM: Pękiel, Bartłomiej
!!!COM-rismID:
!!!CDT: <1633-~1670
!!!CNT: Polish
!!!OPR: Missa secunda
!!!OTL: Kyrie
!!!OMV: 001
!!!PDT:
!!!AGN: Sacred; Mass
!!!SMS-siglum: PL-Kk
!!!SMS-shelfmark: Kk.I.2
!!!SMS-shelfwork: 052-001 M
!!!NIFC-rismSourceID: 300258070
!!!NIFC-islandoraID: pl-kk:750
!!!URL-pdf-islandora: https://repozytorium.nifc.pl/islandora/object/pl-kk%3A750/datastream/PDF/view#page=91
!!!URL-scan: https://polish.musicsources.pl/pl/lokalizacje/galeria/rekopisy/5828 @EN{Scan on Polish Music Herritage in Open Access Website} @PL{Skany w portalu Dziedzictwo Muzyki Polskiej w otwartym dostępie}
!!!ONB-nifc: Części mszy: Kyrie, Gloria, Credo, Sanctus, Benedictus, Agnus Dei; skany: C: 0091-0092; A: 0195; T: 0294; B: 0396-0397
!!!AIN: 1 alto 1 bass 1 soprn 1 tenor
!!!key: F:ion
**kern	**text	**mod-text	**kern	**text	**mod-text	**kern	**text	**mod-text	**kern	**text	**mod-text
*part4	*part4	*part4	*part3	*part3	*part3	*part2	*part2	*part2	*part1	*part1	*part1
*staff4	*staff4	*staff4	*staff3	*staff3	*staff3	*staff2	*staff2	*staff2	*staff1	*staff1	*staff1
*I"BASVS	*	*	*I"TENOR	*	*	*I"ALTVS	*	*	*I"DISCANTVS	*	*
*mI"Basso	*	*	*mI"Tenore	*	*	*mI"Alto	*	*	*mI"Soprano	*	*
*I'B	*	*	*I'T	*	*	*I'A	*	*	*I'S	*	*
*Ibass	*	*	*Itenor	*	*	*Ialto	*	*	*Isoprn	*	*
*ICvox	*	*	*ICvox	*	*	*ICvox	*	*	*ICvox	*	*
*clefF4	*	*	*clefC4	*	*	*clefC4	*	*	*clefC3	*	*
*	*	*	*mclefGv2	*	*	*mclefGv2	*	*	*mclefG2	*	*
*k[b-]	*	*	*k[b-]	*	*	*k[b-]	*	*	*k[b-]	*	*
*F:ion	*	*	*F:ion	*	*	*F:ion	*	*	*F:ion	*	*
*M2/1	*	*	*M2/1	*	*	*M2/1	*	*	*M2/1	*	*
*met(C|)	*	*	*met(C|)	*	*	*met(C|)	*	*	*met(C|)	*	*
=1-	=1-	=1-	=1-	=1-	=1-	=1-	=1-	=1-	=1-	=1-	=1-
*all\right	*	*	*all\right	*	*	*all\right	*	*	*all\right	*	*
!	!	!	!LO:TX:t=P:problem:czasami w miejscu kresek taktowych mała kreska nad pięciolinią:global	!	!	!LO:TX:t=P:problem:czasami w miejscu kresek taktowych mała kreska nad pięciolinią:global	!	!	!LO:TX:t=P:problem:czasami w miejscu kresek taktowych mała kreska nad pięciolinią:global	!	!
!	!	!	!LO:TX:t=P:problem:kreska pseudotaktowa	!	!	!	!	!	!LO:TX:t=P:problem:kreska pseudotaktowa	!	!
!	!	!	!	!	!	!	!	!	!LO:MO:mod=!null:null	!	!
!	!	!	!	!	!	!LO:MO:mod=!null:null	!	!	!	!	!
!LO:MO:mod=!null:null	!	!	!LO:MO:mod=!null:null	!	!	!	!	!	!	!	!
!LO:TX:a:t=Miſsa Secunda eiusd Auts. \nD. Sigl B. P. C. MS. RM.	!	!	!LO:TX:a:t=Miſsa Secunda Eiusdem Authoris dSigl \nB P M C. S R M	!	!	!LO:TX:a:t=Miſsa Secunda eiusd Auts. del Sigl B P. C. M S. M R	!	!	!LO:TX:a:t=Miſsa Secunda eiusd Autſ d Sigl B P. \nC M S R M	!	!
!	!	!	!	!	!	!LO:MO:mod=!null:null	!	!	!	!	!
!	!	!	!	!	!	!LO:TX:a:rj:t=Tenor Imus.	!	!	!	!	!
1F	Ky-	Ky-	1r	.	.	00r	.	.	00r	.	.
!LO:TX:t=P:problem:kreska pseudotaktowa	!	!	!	!	!	!	!	!	!	!	!
1C	-rie	-rie	1c	Ky-	Ky-	.	.	.	.	.	.
=2-	=2-	=2-	=2-	=2-	=2-	=2-	=2-	=2-	=2-	=2-	=2-
4D/	e-	e-	1F	-ri-	-ri-	.	.	.	.	.	.
4E\	.	.	.	.	.	.	.	.	.	.	.
1F	.	.	.	.	.	.	.	.	.	.	.
.	.	.	4A/	-e	-e	.	.	.	.	.	.
.	.	.	4B-/	.	.	.	.	.	.	.	.
*2\right	*	*	*lig	*	*	*	*	*	*	*	*
!LO:TX:t=P:problem:kreska pseudotaktowa	!	!	!	!	!	!	!	!	!	!	!
2E\	.	.	1c\	e-	e-	.	.	.	.	.	.
=3-	=3-	=3-	=3-	=3-	=3-	=3-	=3-	=3-	=3-	=3-	=3-
!	!	!	!	!	!	!LO:TX:t=P:problem:kreska pseudotaktowa	!	!	!	!	!
4D/	.	.	.	.	.	00r	.	.	1f	Ky-	Ky-
4C/	.	.	.	.	.	.	.	.	.	.	.
4D/	.	.	1B-	.	.	.	.	.	.	.	.
4E\	.	.	.	.	.	.	.	.	.	.	.
!LO:TX:t=P:problem:kreska pseudotaktowa	!	!	!	!	!	!	!	!	!	!	!
1F	.	.	.	.	.	.	.	.	1c	-rie	-rie
*	*	*	*Xlig	*	*	*	*	*	*	*	*
!	!	!	!LO:TX:t=P:problem:kreska pseudotaktowa	!	!	!	!	!	!	!	!
.	.	.	2A/	-ley-	-lei-	.	.	.	.	.	.
=4-	=4-	=4-	=4-	=4-	=4-	=4-	=4-	=4-	=4-	=4-	=4-
*	*	*	*2\right	*	*	*	*	*	*	*	*
2BB-/	.	.	2B-\	.	.	.	.	.	4d\	e-	e-
.	.	.	.	.	.	.	.	.	4e\	.	.
2AA/	.	.	2c\	.	.	.	.	.	1f	.	.
1GG	.	.	1B-	.	.	.	.	.	.	.	.
*	*	*	*	*	*	*	*	*	*2\right	*	*
!	!	!	!	!	!	!	!	!	!LO:TX:t=P:problem:kreska pseudotaktowa	!	!
.	.	.	.	.	.	.	.	.	2e\	.	.
=5-	=5-	=5-	=5-	=5-	=5-	=5-	=5-	=5-	=5-	=5-	=5-
!	!	!	!LO:TX:t=P:problem:kreska pseudotaktowa	!	!	!	!	!	!	!	!
2FF/	.	.	1A	-son	-son	1c	Ky-	Ky-	2f\	.	.
4F\	.	.	.	.	.	.	.	.	2c/	.	.
!LO:TX:t=P:problem:kreska pseudotaktowa	!	!	!	!	!	!	!	!	!	!	!
4E\	.	.	.	.	.	.	.	.	.	.	.
4D/	.	.	0r	.	.	1F	-rie	-rie	1d	.	.
4C/	.	.	.	.	.	.	.	.	.	.	.
4D/	.	.	.	.	.	.	.	.	.	.	.
4E\	.	.	.	.	.	.	.	.	.	.	.
=6-	=6-	=6-	=6-	=6-	=6-	=6-	=6-	=6-	=6-	=6-	=6-
2F\	.	.	.	.	.	4A\	e-	e-	2c/	.	.
.	.	.	.	.	.	4B-\	.	.	.	.	.
!LO:TX:t=P:problem:kreska pseudotaktowa	!	!	!	!	!	!	!	!	!LO:TX:t=P:problem:kreska pseudotaktowa	!	!
2E\	.	.	.	.	.	1c	.	.	2e\	.	.
!	!	!	!LO:TX:t=P:problem:kreska pseudotaktowa	!	!	!	!	!	!	!	!
2F\	.	.	1r	.	.	.	.	.	2.d\	.	.
*	*	*	*	*	*	*2\right	*	*	*	*	*
!	!	!	!	!	!	!LO:MO:mod=!null:null	!	!	!	!	!
!	!	!	!	!	!	!LO:N:acc=#	!	!	!	!	!
!	!	!	!	!	!	!LO:TX:a:t=P:problem:# above	!	!	!	!	!
!	!	!	!	!	!	!LO:TX:t=P:problem:kreska pseudotaktowa	!	!	!	!	!
2G\	.	.	.	.	.	2B-\	-ley-	-lei-	.	.	.
.	.	.	.	.	.	.	.	.	4e\	.	.
=7-	=7-	=7-	=7-	=7-	=7-	=7-	=7-	=7-	=7-	=7-	=7-
*	*	*	*	*ij	*ij	*	*	*	*	*	*
1A	-ley-	-lei-	1F	Ky-	Ky-	1c	-son	-son	4f\	.	.
.	.	.	.	.	.	.	.	.	4c/	.	.
.	.	.	.	.	.	.	.	.	1f	.	.
*	*	*	*	*	*	*	*ij	*ij	*	*	*
!LO:TX:t=P:problem:kreska pseudotaktowa	!	!	!LO:TX:t=P:problem:kreska pseudotaktowa	!	!	!	!	!	!	!	!
1G	-son	-son	1C	-ri-	-ri-	1c	Ky-	Ky-	.	.	.
!	!	!	!	!	!	!	!	!	!LO:TX:t=P:problem:kreska pseudotaktowa	!	!
.	.	.	.	.	.	.	.	.	2e\	.	.
=8-	=8-	=8-	=8-	=8-	=8-	=8-	=8-	=8-	=8-	=8-	=8-
1r	.	.	4D/	-e	-e	2B-\	-rie	-rie	2d\	-ley-	-lei-
.	.	.	4E/	.	.	.	.	.	.	.	.
.	.	.	1F	e-	e-	2A/	e-	e-	2c/	-son	-son
1C	Ky-	Ky-	.	.	.	1G	-ley-	-lei-	1.c	Ky-	Ky-
!	!	!	!LO:TX:t=P:problem:kreska pseudotaktowa	!	!	!	!	!	!	!	!
.	.	.	2E/	.	.	.	.	.	.	.	.
=9-	=9-	=9-	=9-	=9-	=9-	=9-	=9-	=9-	=9-	=9-	=9-
!LO:TX:t=P:problem:kreska pseudotaktowa	!	!	!	!	!	!LO:TX:t=P:problem:kreska pseudotaktowa	!	!	!	!	!
1FF	-ri[e]	-ri[e]	4F/	-ley-	-lei-	1A	-son	-son	.	.	.
.	.	.	4G/	.	.	.	.	.	.	.	.
!	!	!	!	!	!	!	!	!	!LO:TX:t=P:problem:kreska pseudotaktowa	!	!
.	.	.	4A/	.	.	.	.	.	2f\	-rie	-rie
.	.	.	4B-/	.	.	.	.	.	.	.	.
*custos:AA	*	*	*	*	*	*	*	*	*	*	*
!LO:LB:g=original	!	!	!	!	!	!	!	!	!	!	!
4AA/	[e-]	[e]-	2A/	.	.	0r	.	.	2f\	e-	e-
4BB-/	.	.	.	.	.	.	.	.	.	.	.
!	!	!	!LO:TX:t=P:problem:kreska pseudotaktowa	!	!	!	!	!	!	!	!
1C/	.	.	2G/	.	.	.	.	.	2e\	.	.
=10-	=10-	=10-	=10-	=10-	=10-	=10-	=10-	=10-	=10-	=10-	=10-
.	.	.	2F/	-son	-son	.	.	.	2.d\	.	.
!LO:TX:t=P:problem:kreska pseudotaktowa	!	!	!LO:TX:t=P:problem:kreska pseudotaktowa	!	!	!	!	!	!	!	!
2BB-/	.	.	2G/	Ky-	Ky-	.	.	.	.	.	.
!	!	!	!	!	!	!	!	!	!LO:TX:t=P:problem:kreska pseudotaktowa	!	!
.	.	.	.	.	.	.	.	.	4e\	.	.
*	*	*	*	*	*	*	*	*	*custos:f	*	*
*	*	*	*custos:A	*	*	*	*	*	*	*	*
!	!	!	!LO:PB:g=original	!	!	!	!	!	!LO:LB:g=original	!	!
1AA	.	.	2A\	-ri-	-ri-	1c	Ky-	Ky-	4f\	.	.
.	.	.	.	.	.	.	.	.	4c/	.	.
!	!	!	!LO:TX:t=P:problem:kreska pseudotaktowa	!	!	!	!	!	!	!	!
.	.	.	2c\	-e	-e	.	.	.	4f\	.	.
!	!	!	!	!	!	!	!	!	!LO:TX:t=P:problem:kreska pseudotaktowa	!	!
.	.	.	.	.	.	.	.	.	4e\	.	.
=11-	=11-	=11-	=11-	=11-	=11-	=11-	=11-	=11-	=11-	=11-	=11-
!	!	!	!	!	!	!LO:TX:t=P:problem:kreska pseudotaktowa	!	!	!	!	!
4BB-/	.	.	4B-\	e-	e-	1F	-rie	-rie	1d	.	.
4C/	.	.	8A/L	.	.	.	.	.	.	.	.
.	.	.	8G/J	.	.	.	.	.	.	.	.
4D/	.	.	1F	-ley-	-lei-	.	.	.	.	.	.
!LO:TX:t=P:problem:kreska pseudotaktowa	!	!	!	!	!	!	!	!	!	!	!
4E/	.	.	.	.	.	.	.	.	.	.	.
2F\	.	.	.	.	.	4A\	e-	e-	4c\	.	.
.	.	.	.	.	.	4B-\	.	.	4d\	.	.
!	!	!	!LO:TX:t=P:problem:kreska pseudotaktowa	!	!	!	!	!	!	!	!
2E\	.	.	2G/	-son	-son	1c\	.	.	4e\	.	.
!	!	!	!	!	!	!	!	!	!LO:TX:t=P:problem:kreska pseudotaktowa	!	!
.	.	.	.	.	.	.	.	.	4c/	.	.
=12-	=12-	=12-	=12-	=12-	=12-	=12-	=12-	=12-	=12-	=12-	=12-
1D	.	.	2r	.	.	.	.	.	4d\	.	.
.	.	.	.	.	.	.	.	.	4e\	.	.
!	!	!	!LO:TX:t=P:problem:kreska pseudotaktowa	!	!	!	!	!	!	!	!
.	.	.	2d\	Ky-	Ky-	1B-	.	.	4f\	.	.
!	!	!	!	!	!	!	!	!	!LO:TX:t=P:problem:kreska pseudotaktowa	!	!
.	.	.	.	.	.	.	.	.	4d\	.	.
0C	ley-	lei-	2G/	-ri-	-ri-	.	.	.	2e\	.	.
!	!	!	!	!	!	!LO:TX:t=P:problem:kreska pseudotaktowa	!	!	!	!	!
.	.	.	4A/	-e	-e	2A/	.	.	1f\	.	.
.	.	.	4B-/	e-	e-	.	.	.	.	.	.
=13-	=13-	=13-	=13-	=13-	=13-	=13-	=13-	=13-	=13-	=13-	=13-
.	.	.	1c	-ley-	-lei-	1G	-ley-	-lei-	.	.	.
*	*	*	*	*	*	*	*	*	*	*ij	*ij
.	.	.	.	.	.	.	.	.	2e\	-ley-	-lei-
!LO:TX:t=P:problem:kreska pseudotaktowa	!	!	!LO:TX:t=P:problem:kreska pseudotaktowa	!	!	!LO:TX:t=P:problem:kreska pseudotaktowa	!	!	!LO:TX:t=P:problem:kreska pseudotaktowa	!	!
1FF;l	-son	-son	1c;l	-son	-son	1A;l	-son	-son	1f;<	-son	-son
*	*	*	*	*Xij	*Xij	*	*Xij	*Xij	*	*Xij	*Xij
!	!	!	!	!	!	!LO:LB:g=original	!	!	!	!	!
=14||-	=14||-	=14||-	=14||-	=14||-	=14||-	=14||-	=14||-	=14||-	=14||-	=14||-	=14||-
*M2\1	*	*	*M2\1	*	*	*M2\1	*	*	*M2\1	*	*
*met(C|)	*	*	*met(C|)	*	*	*met(C|)	*	*	*met(C|)	*	*
!LO:TX:t=P:problem:kreska pseudotaktowa	!	!	!	!	!	!	!	!	!	!	!
1r	.	.	1c	CHri-	Chri-	00r	.	.	00r	.	.
!	!	!	!LO:TX:t=P:problem:kreska pseudotaktowa	!	!	!	!	!	!	!	!
1F	CHri-	Chri-	1d	-ste	-ste	.	.	.	.	.	.
=15-	=15-	=15-	=15-	=15-	=15-	=15-	=15-	=15-	=15-	=15-	=15-
*lig	*	*	*lig	*	*	*	*	*	*	*	*
1G	-ste	-ste	1B-	e-	e-	.	.	.	.	.	.
*	*	*	*col	*	*	*	*	*	*	*	*
!LO:TX:a:t=P:problem:♭ above	!	!	!	!	!	!	!	!	!	!	!
1E-	e-	e-	2.c\	.	.	.	.	.	.	.	.
*Xlig	*	*	*Xlig	*	*	*	*	*	*	*	*
!	!	!	!LO:TX:t=P:problem:kreska pseudotaktowa	!	!	!	!	!	!	!	!
.	.	.	4B-\	.	.	.	.	.	.	.	.
*	*	*	*Xcol	*	*	*	*	*	*	*	*
=16-	=16-	=16-	=16-	=16-	=16-	=16-	=16-	=16-	=16-	=16-	=16-
!	!	!	!	!	!	!	!	!	!LO:TX:t=P:problem:kreska pseudotaktowa	!	!
2.F\	.	.	4A/	.	.	1c	CHri-	Chri-	1r	.	.
.	.	.	4G/	.	.	.	.	.	.	.	.
.	.	.	2A/	.	.	.	.	.	.	.	.
4E-\	.	.	.	.	.	.	.	.	.	.	.
!	!	!	!	!	!	!LO:TX:t=P:problem:kreska pseudotaktowa	!	!	!	!	!
4D/	.	.	1B-	-ley-	-lei-	1d	-ste	-ste	1f	CHri-	Chri-
4C/	.	.	.	.	.	.	.	.	.	.	.
!LO:TX:t=P:problem:kreska pseudotaktowa	!	!	!	!	!	!	!	!	!	!	!
2BB-/	.	.	.	.	.	.	.	.	.	.	.
=17-	=17-	=17-	=17-	=17-	=17-	=17-	=17-	=17-	=17-	=17-	=17-
!	!	!	!LO:TX:t=P:problem:kreska pseudotaktowa	!	!	!	!	!	!	!	!
*	*	*	*	*	*	*lig	*	*	*	*	*
2.E-X\	.	.	1G	-son	-son	1B-	e-	e-	1g	.	.
4D/	.	.	.	.	.	.	.	.	.	.	.
*lig	*	*	*	*	*	*col	*	*	*	*	*
!	!	!	!	!	!	!	!	!	!LO:TX:t=P:problem:kreska pseudotaktowa	!	!
1C	.	.	00r	.	.	2.c\	.	.	1e-X	-ſte	-ste
*	*	*	*	*	*	*Xlig	*	*	*	*	*
!	!	!	!	!	!	!LO:TX:t=P:problem:kreska pseudotaktowa	!	!	!	!	!
.	.	.	.	.	.	4B-\	.	.	.	.	.
*	*	*	*	*	*	*Xcol	*	*	*	*	*
=18-	=18-	=18-	=18-	=18-	=18-	=18-	=18-	=18-	=18-	=18-	=18-
*col	*	*	*	*	*	*	*	*	*	*	*
2.D/	.	.	.	.	.	4A/	.	.	2.f\	e-	e-
*Xlig	*	*	*	*	*	*	*	*	*	*	*
.	.	.	.	.	.	4G/	.	.	.	.	.
.	.	.	.	.	.	1F	.	.	.	.	.
!	!	!	!	!	!	!	!	!	!LO:TX:a:t=P:problem:# above	!	!
!	!	!	!	!	!	!	!	!	!LO:MO:mod=!null:null	!	!
!	!	!	!	!	!	!	!	!	!LO:N:acc=#	!	!
4C/	.	.	.	.	.	.	.	.	4e\	.	.
*Xcol	*	*	*	*	*	*	*	*	*	*	*
2BB-/	.	.	.	.	.	.	.	.	2d\	.	.
!LO:TX:t=P:problem:kreska pseudotaktowa	!	!	!	!	!	!LO:TX:t=P:problem:kreska pseudotaktowa	!	!	!	!	!
*	*	*	*	*	*	*	*	*	*lig	*	*
2AA/	.	.	.	.	.	2c\	.	.	1c\	-ley-	-lei-
*custos:BB	*	*	*	*	*	*	*	*	*	*	*
!LO:LB:g=original	!	!	!	!	!	!	!	!	!	!	!
=19-	=19-	=19-	=19-	=19-	=19-	=19-	=19-	=19-	=19-	=19-	=19-
4BB-/	.	.	.	.	.	4d\	.	.	.	.	.
4C/	.	.	.	.	.	4e\	.	.	.	.	.
!	!	!	!	!	!	!LO:TX:t=P:problem:kreska pseudotaktowa	!	!	!	!	!
4D/	.	.	.	.	.	2f\	-ley-	-lei-	1B-	.	.
*	*	*	*	*	*	*	*	*	*Xlig	*	*
4Eny/	.	.	.	.	.	.	.	.	.	.	.
*lig	*	*	*	*ij	*ij	*	*	*	*	*	*
!	!	!	!	!	!	!LO:TX:t=P:problem:kreska pseudotaktowa	!	!	!	!	!
1F	-ley-	-lei-	1c	CHri-	Chri-	1F	-son	-son	.	.	.
!	!	!	!	!	!	!	!	!	!LO:TX:t=P:problem:kreska pseudotaktowa	!	!
.	.	.	.	.	.	.	.	.	2A/	.	.
=20-	=20-	=20-	=20-	=20-	=20-	=20-	=20-	=20-	=20-	=20-	=20-
!	!	!	!LO:TX:t=P:problem:kreska pseudotaktowa	!	!	!	!	!	!	!	!
1BB-	.	.	1d	-ste	-ste	0r	.	.	2B-/	-son	-son
*Xlig	*	*	*	*	*	*	*	*	*	*ij	*ij
!	!	!	!	!	!	!	!	!	!LO:TX:t=P:problem:kreska pseudotaktowa	!	!
.	.	.	.	.	.	.	.	.	2f\	CHri-	Chri-
*	*	*	*	*	*	*	*	*	*custos:g	*	*
!	!	!	!	!	!	!	!	!	!LO:PB:g=original	!	!
*	*	*	*lig	*	*	*	*	*	*	*	*
1E-X	-son	-son	1B-	e-	e-	.	.	.	1g	-ste	-ste
=21-	=21-	=21-	=21-	=21-	=21-	=21-	=21-	=21-	=21-	=21-	=21-
*	*	*	*col	*	*	*	*	*	*	*	*
!	!	!	!	!	!	!LO:TX:t=P:problem:kreska pseudotaktowa	!	!	!	!	!
*	*ij	*ij	*	*	*	*	*	*	*lig	*	*
1C	CHri-	Chri-	2.c\	.	.	1r	.	.	1e	e-	e-
*	*	*	*Xlig	*	*	*	*	*	*	*	*
!	!	!	!LO:TX:t=P:problem:kreska pseudotaktowa	!	!	!	!	!	!	!	!
.	.	.	4B-\	.	.	.	.	.	.	.	.
*	*	*	*Xcol	*	*	*	*	*	*	*	*
*	*	*	*custos:A	*	*	*	*ij	*ij	*col	*	*
!LO:TX:t=P:problem:kreska pseudotaktowa	!	!	!LO:LB:g=original	!	!	!	!	!	!	!	!
1D	-ste	-ste	4A\	.	.	1F	CHri-	Chri-	2.f\	.	.
.	.	.	8B-\L	.	.	.	.	.	.	.	.
.	.	.	8c\J	.	.	.	.	.	.	.	.
.	.	.	2.d\	-ley-	-lei-	.	.	.	.	.	.
*	*	*	*	*	*	*	*	*	*Xlig	*	*
!	!	!	!	!	!	!	!	!	!LO:TX:t=P:problem:kreska pseudotaktowa	!	!
.	.	.	.	.	.	.	.	.	4e\	.	.
*	*	*	*	*	*	*	*	*	*Xcol	*	*
=22-	=22-	=22-	=22-	=22-	=22-	=22-	=22-	=22-	=22-	=22-	=22-
*lig	*	*	*	*	*	*	*	*	*	*	*
1BB-	e-	e-	.	.	.	1G	-ste	-ste	2d\	-ley-	-lei-
.	.	.	4c\	.	.	.	.	.	.	.	.
.	.	.	4B-\	.	.	.	.	.	2.g\	.	.
!	!	!	!LO:TX:t=P:problem:kreska pseudotaktowa	!	!	!	!	!	!	!	!
.	.	.	4A\	.	.	.	.	.	.	.	.
*col	*	*	*	*	*	*	*	*	*	*	*
!	!	!	!	!	!	!LO:TX:t=P:problem:kreska pseudotaktowa	!	!	!	!	!
2.C/	.	.	1G	.	.	1E	e-	e-	.	.	.
*Xlig	*	*	*	*	*	*	*	*	*	*	*
.	.	.	.	.	.	.	.	.	4f\	.	.
.	.	.	.	.	.	.	.	.	4e\	.	.
!	!	!	!	!	!	!	!	!	!LO:TX:t=P:problem:kreska pseudotaktowa	!	!
4BB-/	.	.	.	.	.	.	.	.	4d\	.	.
*Xcol	*	*	*	*	*	*	*	*	*	*	*
=23-	=23-	=23-	=23-	=23-	=23-	=23-	=23-	=23-	=23-	=23-	=23-
4AA/	-ley-	-lei-	2A\	-son	-son	2.F/	-ley-	-lei-	1c	.	.
4GG/	.	.	.	.	.	.	.	.	.	.	.
!LO:TX:t=P:problem:kreska pseudotaktowa	!	!	!	!	!	!	!	!	!	!	!
2FF/	-son	-son	2c\	CHri-	Chri-	.	.	.	.	.	.
.	.	.	.	.	.	4E/	.	.	.	.	.
2.BB-/	CHri-	Chri-	1d	-ste	-ste	2D/	-son	-son	2B-/	-ſon	-son
!	!	!	!	!	!	!	!	!	!LO:TX:t=P:problem:kreska pseudotaktowa	!	!
.	.	.	.	.	.	2.B-\	CHri-	Chri-	2f\	Chri-	Chri-
4AA/	.	.	.	.	.	.	.	.	.	.	.
=24-	=24-	=24-	=24-	=24-	=24-	=24-	=24-	=24-	=24-	=24-	=24-
!	!	!	!LO:TX:t=P:problem:kreska pseudotaktowa	!	!	!	!	!	!	!	!
4GG/	.	.	1B-	e-	e-	.	.	.	1g	-ste	-ste
4AA/	.	.	.	.	.	4c\	.	.	.	.	.
4BB-/	.	.	.	.	.	4d\	-ste	-ste	.	.	.
!	!	!	!	!	!	!LO:TX:t=P:problem:kreska pseudotaktowa	!	!	!	!	!
4GG/	.	.	.	.	.	4B-\	.	.	.	.	.
2AA/	-ste	-ste	2A/	.	.	1.c	e-	e-	2f\	e-	e-
2C/	e-	e-	2G/	.	.	.	.	.	1e-X\	.	.
=25-	=25-	=25-	=25-	=25-	=25-	=25-	=25-	=25-	=25-	=25-	=25-
0GG	-ley-	-lei-	0G	-ley-	-lei-	.	.	.	.	.	.
!	!	!	!	!	!	!LO:TX:a:t=P:problem:# above	!	!	!	!	!
!	!	!	!	!	!	!LO:MO:mod=!null:null	!	!	!	!	!
!	!	!	!	!	!	!LO:N:acc=#	!	!	!	!	!
.	.	.	.	.	.	4B-\	.	.	4d\	.	.
!	!	!	!	!	!	!LO:TX:t=P:problem:kreska pseudotaktowa	!	!	!	!	!
.	.	.	.	.	.	4A\	.	.	4c\	.	.
!	!	!	!	!	!	!LO:TX:a:t=P:problem:# above	!	!	!	!	!
!	!	!	!	!	!	!LO:MO:mod=!null:null	!	!	!	!	!
!	!	!	!	!	!	!LO:N:acc=#	!	!	!	!	!
.	.	.	.	.	.	4B-\	.	.	1d	-ley-	-lei-
.	.	.	.	.	.	2c\	-ley-	-lei-	.	.	.
!	!	!	!	!	!	!LO:TX:a:t=P:problem:# above	!	!	!	!	!
!	!	!	!	!	!	!LO:MO:mod=!null:null	!	!	!	!	!
!	!	!	!	!	!	!LO:N:acc=#	!	!	!	!	!
.	.	.	.	.	.	4B-\	.	.	.	.	.
=26-	=26-	=26-	=26-	=26-	=26-	=26-	=26-	=26-	=26-	=26-	=26-
!LO:TX:t=P:problem:kreska pseudotaktowa	!	!	!LO:TX:t=P:problem:kreska pseudotaktowa	!	!	!LO:TX:t=P:problem:kreska pseudotaktowa	!	!	!LO:TX:t=P:problem:kreska pseudotaktowa	!	!
!LO:SIC:s=0C;l:v	!	!	!	!	!	!	!	!	!	!	!
0C;	-son	-son	0G;l	-son	-son	0c;l	-son	-son	0e#X;l	-ſon	-son
*	*Xij	*Xij	*	*Xij	*Xij	*	*Xij	*Xij	*	*Xij	*Xij
!	!	!	!	!	!	!LO:LB:g=original	!	!	!	!	!
=27||-	=27||-	=27||-	=27||-	=27||-	=27||-	=27||-	=27||-	=27||-	=27||-	=27||-	=27||-
*M2\1	*	*	*M2\1	*	*	*M2\1	*	*	*M2\1	*	*
*met(C|)	*	*	*met(C|)	*	*	*met(C|)	*	*	*met(C|)	*	*
!LO:TX:t=P:problem:kreska pseudotaktowa	!	!	!	!	!	!	!	!	!LO:TX:t=P:problem:kreska pseudotaktowa	!	!
1r	.	.	1c	Ky-	Ky-	00r	.	.	00r	.	.
1F	Ky-	Ky-	2A/	-ri-	-ri-	.	.	.	.	.	.
!	!	!	!LO:TX:t=P:problem:kreska pseudotaktowa	!	!	!	!	!	!	!	!
.	.	.	2F/	-e	-e	.	.	.	.	.	.
=28-	=28-	=28-	=28-	=28-	=28-	=28-	=28-	=28-	=28-	=28-	=28-
2Eny\	-ri-	-ri-	2G/	e-	e-	.	.	.	.	.	.
!LO:TX:t=P:problem:kreska pseudotaktowa	!	!	!	!	!	!	!	!	!	!	!
2C/	-e	-e	2A/	.	.	.	.	.	.	.	.
*custos:D	*	*	*	*	*	*	*	*	*	*	*
!LO:LB:g=original	!	!	!	!	!	!	!	!	!	!	!
*	*	*	*lig	*	*	*	*	*	*	*	*
2D/	e-	e-	1B-	-ley-	-lei-	.	.	.	.	.	.
2E\	.	.	.	.	.	.	.	.	.	.	.
=29-	=29-	=29-	=29-	=29-	=29-	=29-	=29-	=29-	=29-	=29-	=29-
*	*	*	*col	*	*	*	*	*	*	*	*
!	!	!	!	!	!	!LO:TX:t=P:problem:kreska pseudotaktowa	!	!	!	!	!
2F\	.	.	2.A\	.	.	1r	.	.	1f	Ky-	Ky-
*	*	*	*Xlig	*	*	*	*	*	*	*	*
!LO:TX:t=P:problem:kreska pseudotaktowa	!	!	!	!	!	!	!	!	!	!	!
2D/	.	.	.	.	.	.	.	.	.	.	.
.	.	.	8G/L	.	.	.	.	.	.	.	.
*	*	*	*Xcol	*	*	*	*	*	*	*	*
!	!	!	!LO:TX:t=P:problem:kreska pseudotaktowa	!	!	!	!	!	!	!	!
.	.	.	8F/J	.	.	.	.	.	.	.	.
1C	-ley-	-lei-	2.G/	.	.	1c	Ky-	Ky-	2eny\	-rie	-rie
!	!	!	!	!	!	!	!	!	!LO:TX:t=P:problem:kreska pseudotaktowa	!	!
.	.	.	.	.	.	.	.	.	2c/	.	.
.	.	.	4A/	.	.	.	.	.	.	.	.
=30-	=30-	=30-	=30-	=30-	=30-	=30-	=30-	=30-	=30-	=30-	=30-
!	!	!	!LO:TX:t=P:problem:kreska pseudotaktowa	!	!	!	!	!	!	!	!
2GG/	-son	-son	1B-	-son	-son	2B-\	-rie	-rie	2d\	e-	e-
*	*ij	*ij	*	*	*	*	*	*	*	*	*
!LO:TX:t=P:problem:kreska pseudotaktowa	!	!	!	!	!	!	!	!	!	!	!
2G\	Ky-	Ky-	.	.	.	2G/	E-	e-	2e\	.	.
*	*	*	*	*	*	*	*	*	*lig	*	*
2F\	-ri-	-ri-	1r	.	.	2A/	-ley-	-lei-	1f	-ley-	-lei-
2D/	-e	-e	.	.	.	2B-\	.	.	.	.	.
=31-	=31-	=31-	=31-	=31-	=31-	=31-	=31-	=31-	=31-	=31-	=31-
!	!	!	!	!	!	!LO:TX:t=P:problem:kreska pseudotaktowa	!	!	!LO:TX:t=P:problem:kreska pseudotaktowa	!	!
2.E\	e-	e-	2r	.	.	1c	-son	-son	1e	.	.
*	*	*	*	*ij	*ij	*	*	*	*	*	*
!	!	!	!LO:TX:t=P:problem:kreska pseudotaktowa	!	!	!	!	!	!	!	!
.	.	.	2c\	Ky-	Ky-	.	.	.	.	.	.
!LO:TX:t=P:problem:kreska pseudotaktowa	!	!	!	!	!	!	!	!	!	!	!
4F\	.	.	.	.	.	.	.	.	.	.	.
*	*	*	*custos:B	*	*	*	*	*	*Xlig	*	*
!	!	!	!LO:LB:g=original	!	!	!	!	!	!	!	!
4G\	.	.	2B-\	-ri-	-ri-	00r	.	.	0d	.	.
4D/	.	.	.	.	.	.	.	.	.	.	.
!	!	!	!LO:TX:t=P:problem:kreska pseudotaktowa	!	!	!	!	!	!	!	!
1G\	.	.	2G/	-e	-e	.	.	.	.	.	.
=32-	=32-	=32-	=32-	=32-	=32-	=32-	=32-	=32-	=32-	=32-	=32-
.	.	.	2.A/	e-	e-	.	.	.	.	.	.
!LO:TX:t=P:problem:kreska pseudotaktowa	!	!	!	!	!	!	!	!	!	!	!
2F\	.	.	.	.	.	.	.	.	.	.	.
.	.	.	4B-\	.	.	.	.	.	.	.	.
*lig	*	*	*	*	*	*	*	*	*	*	*
1E	-ley-	-lei-	4c\	.	.	.	.	.	1e	-son	-son
.	.	.	4G/	.	.	.	.	.	.	.	.
.	.	.	1c\	.	.	.	.	.	.	.	.
=33-	=33-	=33-	=33-	=33-	=33-	=33-	=33-	=33-	=33-	=33-	=33-
*	*	*	*	*	*	*	*	*	*	*ij	*ij
!	!	!	!	!	!	!	!	!	!LO:TX:t=P:problem:kreska pseudotaktowa	!	!
1D	.	.	.	.	.	.	.	.	1f	Ky-	Ky-
*Xlig	*	*	*	*	*	*	*	*	*	*	*
!	!	!	!LO:TX:t=P:problem:kreska pseudotaktowa	!	!	!	!	!	!	!	!
!	!	!	!LO:TX:a:t=P:problem:# above	!	!	!	!	!	!	!	!
!	!	!	!LO:MO:mod=!null:null	!	!	!	!	!	!	!	!
!	!	!	!LO:N:acc=#	!	!	!	!	!	!	!	!
.	.	.	2B-\	.	.	.	.	.	.	.	.
*	*	*	*	*	*	*	*	*	*custos:e	*	*
!	!	!	!	!	!	!LO:TX:t=P:problem:kreska pseudotaktowa	!	!	!LO:LB:g=original	!	!
2C/	-son	-son	2c\	.	.	0r	.	.	2e\	-rie	-rie
!LO:TX:t=P:problem:kreska pseudotaktowa	!	!	!	!	!	!	!	!	!LO:TX:t=P:problem:kreska pseudotaktowa	!	!
2C/	Ky-	Ky-	4G/	.	.	.	.	.	2c/	.	.
.	.	.	4A/	.	.	.	.	.	.	.	.
=34-	=34-	=34-	=34-	=34-	=34-	=34-	=34-	=34-	=34-	=34-	=34-
2BB-/	-ri-	-ri-	1B-	ley-	lei-	.	.	.	2d\	e-	e-
2GG/	-e	-e	.	.	.	.	.	.	2e\	.	.
*	*	*	*	*	*	*	*ij	*ij	*	*	*
2AA/	e-	e-	2A/	-son	-son	1F	Ky-	Ky-	2f\	-ley-	-lei-
*	*	*	*	*Xij	*Xij	*	*	*	*	*	*
!	!	!	!LO:TX:t=P:problem:kreska pseudotaktowa	!	!	!	!	!	!LO:TX:t=P:problem:kreska pseudotaktowa	!	!
2BB-/	.	.	2r	.	.	.	.	.	2d\	.	.
=35-	=35-	=35-	=35-	=35-	=35-	=35-	=35-	=35-	=35-	=35-	=35-
!LO:TX:t=P:problem:kreska pseudotaktowa	!	!	!	!	!	!	!	!	!LO:TX:t=P:problem:kreska pseudotaktowa	!	!
1C	-ley-	-lei-	2r	.	.	2E/	-rie	-rie	1G	-son	-son
*	*	*	*	*	*	*	*	*	*	*Xij	*Xij
!	!	!	!	!	!	!LO:TX:t=P:problem:kreska pseudotaktowa	!	!	!	!	!
.	.	.	2c\	Ky-	Ky-	2C/	E-	e-	.	.	.
1GG	-son	-son	2B-\	-ri-	-ri-	2D/	-ley-	-lei-	2r	.	.
!	!	!	!LO:TX:t=P:problem:kreska pseudotaktowa	!	!	!	!	!	!LO:TX:t=P:problem:kreska pseudotaktowa	!	!
.	.	.	2G/	-e	-e	2E/	.	.	2g\	.	.
=36-	=36-	=36-	=36-	=36-	=36-	=36-	=36-	=36-	=36-	=36-	=36-
!LO:TX:t=P:problem:kreska pseudotaktowa	!	!	!	!	!	!	!	!	!	!	!
1D	Ky-	Ky-	2A/	e-	e-	1F	.	.	2f\	Ky-	Ky-
.	.	.	2B-\	-ley-	-lei-	.	.	.	2d\	-rie	-rie
!	!	!	!LO:TX:t=P:problem:kreska pseudotaktowa	!	!	!	!	!	!	!	!
2C/	-ri-	-ri-	1c	-son	-son	2G/	.	.	2e\	.	.
!	!	!	!	!	!	!	!	!	!LO:TX:t=P:problem:kreska pseudotaktowa	!	!
2AA/	-e	-e	.	.	.	2A/	.	.	2f\	e-	e-
=37-	=37-	=37-	=37-	=37-	=37-	=37-	=37-	=37-	=37-	=37-	=37-
!	!	!	!	!	!	!LO:TX:t=P:problem:kreska pseudotaktowa	!	!	!	!	!
4BB-/	e-	e-	2r	.	.	1F	-son	-son	1d	-ley-	-lei-
4C/	.	.	.	.	.	.	.	.	.	.	.
*	*	*	*	*ij	*ij	*	*	*	*	*	*
4D/	.	.	2B-\	Ky-	Ky-	.	.	.	.	.	.
4E\	.	.	.	.	.	.	.	.	.	.	.
2F\	.	.	2A/	-ri-	-ri-	0r	.	.	2c\	-son	-son
*	*	*	*	*	*	*	*	*	*	*ij	*ij
!LO:TX:t=P:problem:kreska pseudotaktowa	!	!	!LO:TX:t=P:problem:kreska pseudotaktowa	!	!	!	!	!	!LO:TX:t=P:problem:kreska pseudotaktowa	!	!
2D/	.	.	2F/	-e	-e	.	.	.	2f\	Ky-	Ky-
*custos:CC	*	*	*	*	*	*	*	*	*	*	*
!LO:PB:g=original	!	!	!	!	!	!	!	!	!	!	!
=38-	=38-	=38-	=38-	=38-	=38-	=38-	=38-	=38-	=38-	=38-	=38-
2C/	ley-	lei-	2G/	e-	e-	.	.	.	2e\	-rie	-rie
2AA/	.	.	2A/	-ley-	-lei-	.	.	.	2c\	e-	e-
!LO:TX:t=P:problem:kreska pseudotaktowa	!	!	!	!	!	!	!	!	!	!	!
1GG	-son	-son	1B-	-son	-son	2r	.	.	2d\	-ley-	-lei-
!	!	!	!	!	!	!LO:TX:t=P:problem:kreska pseudotaktowa	!	!	!	!	!
.	.	.	.	.	.	2G/	Ky-	Ky-	2e\	.	.
=39-	=39-	=39-	=39-	=39-	=39-	=39-	=39-	=39-	=39-	=39-	=39-
!	!	!	!	!	!	!	!	!	!LO:TX:t=P:problem:kreska pseudotaktowa	!	!
1D	Ky-	Ky-	2A/	Ky-	Ky-	2F/	-rie	-rie	1f	-son	-son
!	!	!	!LO:TX:t=P:problem:kreska pseudotaktowa	!	!	!	!	!	!	!	!
.	.	.	2F/	-ri-	-ri-	2D/	E-	e-	.	.	.
2C/	-ri-	-ri-	2G/	-e	-e	2E/	-ley-	-lei-	1r	.	.
!LO:TX:t=P:problem:kreska pseudotaktowa	!	!	!	!	!	!LO:TX:t=P:problem:kreska pseudotaktowa	!	!	!	!	!
2AA/	-e	-e	2A\	e-	e-	2F#X/	.	.	.	.	.
=40-	=40-	=40-	=40-	=40-	=40-	=40-	=40-	=40-	=40-	=40-	=40-
*	*	*	*lig	*	*	*	*	*	*	*	*
4GG/	e-	e-	1B-	-ley-	-lei-	1G	.	.	2r	.	.
4AA/	.	.	.	.	.	.	.	.	.	.	.
!	!	!	!	!	!	!	!	!	!LO:TX:t=P:problem:kreska pseudotaktowa	!	!
4BB-/	.	.	.	.	.	.	.	.	2g\	Ky-	Ky-
4GG/	.	.	.	.	.	.	.	.	.	.	.
2D/	.	.	1d	.	.	2A/	.	.	2f\	-rie	-rie
!	!	!	!	!	!	!	!	!	!LO:TX:t=P:problem:kreska pseudotaktowa	!	!
2BB-/	.	.	.	.	.	1B-\	.	.	2d\	e-	e-
*	*	*	*Xlig	*	*	*	*	*	*	*	*
=41-	=41-	=41-	=41-	=41-	=41-	=41-	=41-	=41-	=41-	=41-	=41-
0C	-ley-	-lei-	0c	.	.	.	.	.	2e\	-ley-	-lei-
!	!	!	!	!	!	!LO:TX:t=P:problem:kreska pseudotaktowa	!	!	!	!	!
.	.	.	.	.	.	2A/	.	.	1f	.	.
.	.	.	.	.	.	1G	.	.	.	.	.
.	.	.	.	.	.	.	.	.	2e\	.	.
=42-	=42-	=42-	=42-	=42-	=42-	=42-	=42-	=42-	=42-	=42-	=42-
!LO:TX:t=P:problem:kreska pseudotaktowa	!	!	!LO:TX:t=P:problem:kreska pseudotaktowa	!	!	!LO:TX:t=P:problem:kreska pseudotaktowa	!	!	!	!	!
!	!	!	!	!	!	!LO:SIC:s=0A;l:v	!	!	!	!	!
0FF;l	-son	-son	0c;l	-son	-son	0Al	-son	-son	0f;<l	-son	-son
*	*Xij	*Xij	*	*Xij	*Xij	*	*Xij	*Xij	*	*Xij	*Xij
==	==	==	==	==	==	==	==	==	==	==	==
*-	*-	*-	*-	*-	*-	*-	*-	*-	*-	*-	*-
!!!system-decoration: [(s1,s2,s3,s4)]
!!!RDF**kern: < = below
!!!RDF**kern: l = terminal long
!!!filter-modern: tie -s | humtr -p | sic -sq | shed -e "s/LO:DY:(a|b|rj)/LO:dy:$1/L" | shed -e "s/TX(.*):t=P:/tx$1:t=P:/LG" | modori -m | autostem -r | shed -e "s/yy//" | shed -k -e "s/\(y([^y])/($1/" | shed -e "s/-//B" | shed -e "s/^(\d+[\/\\]right)/$1yy/I; s/^(\d+[\/\\]left)/$1yy/I" | shed -e "s/^(X?)rep$/$1REP/I" | shed -k -e "s/[<>]//g" | shed -e "s/^custos:/Xcustos:/I" | shed -k -e "s/:TUP:/:tup:/L" | rid -li
!!!ENC: Berenika Jozajtis
!!!END: 2022-05-06
!!!ENC: Marta Lawrence
!!!END: 2022-05-17
!!!EED-modern: Antoni Szymański
!!!END-modern: 2022-06-26
